X:10
T:No.10 Tripping Up The Stairs
C:reel
M:4/4
L:1/8
K:A
dcdf efde|fBBB fdBc|dcdf efdf|[1eAAA eAcA:|
|[2eAAA eAce||abga faea|fBBB fBce|
abga fgaf|[1eAAA eAce:|[2eee=g egfe||
Å@
